X:17815
T:Trip to the Nunnery,A. JB.50
M:4/4
L:1/8
Q:140
S:James Biggins MS, Leeds, 1779.
R:Misc.
O:England
A:Yorkshire
Z:vmp.Nick Barber & Chris Partington
K:G
GedcB3A|Gafed3d|ecBA dBAG|ecdBA4:|!
1AGFE DEFG|ABcAB4|edcB AGAB|efgaf4|!
dgdB cecA|BdBGA4|GcBA Ggfe|dcBAG4:|]

